build/images/icons-category/icon-computer.svg

<svg width="32" height="32" viewBox="0 0 32 32" fill="none" xmlns="http://www.w3.org/2000/svg">
<path d="M29.6011 0H2.39893C1.07627 0 0 1.13291 0 2.52575V23.2988C0 24.6911 1.07627 25.8246 2.39893 25.8246H11.9221C11.9979 26.8081 11.5925 27.7794 10.8432 28.3352L9.88267 29.0481C9.82133 29.0931 9.77013 29.1475 9.728 29.2081C9.05867 29.2817 8.53333 29.8728 8.53333 30.5965C8.53333 31.3701 9.1312 32 9.86667 32H22.1333C22.8688 32 23.4667 31.3701 23.4667 30.5965C23.4667 29.8728 22.9419 29.2822 22.2725 29.2076C22.2309 29.1481 22.1803 29.0942 22.1205 29.0498L21.1584 28.3363C20.4085 27.7799 20.0027 26.8087 20.0784 25.8246H29.6011C30.9237 25.8246 32 24.6916 32 23.2988V2.52575C32 1.13291 30.9237 0 29.6011 0ZM9.22293 2.97151L9.75627 2.41011C9.9648 2.1906 10.3019 2.1906 10.5104 2.41011C10.7189 2.62961 10.7189 2.98442 10.5104 3.20393L9.97707 3.76533C9.87307 3.87481 9.73653 3.92982 9.6 3.92982C9.46347 3.92982 9.32693 3.87481 9.22293 3.76533C9.0144 3.54582 9.0144 3.19102 9.22293 2.97151ZM8.912 4.09263C9.008 4.1993 9.06667 4.33965 9.06667 4.49123C9.06667 4.64281 9.008 4.78316 8.912 4.88982C8.81067 4.99088 8.67733 5.05263 8.53333 5.05263C8.3888 5.05263 8.25547 4.99088 8.15467 4.88982C8.05813 4.78316 8 4.64281 8 4.49123C8 4.33965 8.05813 4.1993 8.15467 4.09263C8.352 3.88491 8.71467 3.88491 8.912 4.09263ZM7.0896 2.41011C7.29813 2.1906 7.6352 2.1906 7.84373 2.41011C8.05227 2.62961 8.05227 2.98442 7.84373 3.20393L6.24373 4.88814C6.13973 4.99761 6.0032 5.05263 5.86667 5.05263C5.73013 5.05263 5.5936 4.99761 5.4896 4.88814C5.28107 4.66863 5.28107 4.31382 5.4896 4.09432L7.0896 2.41011ZM2.2896 4.65572L4.42293 2.41011C4.63147 2.1906 4.96853 2.1906 5.17707 2.41011C5.3856 2.62961 5.3856 2.98442 5.17707 3.20393L3.04373 5.44954C2.93973 5.55902 2.8032 5.61404 2.66667 5.61404C2.53013 5.61404 2.3936 5.55902 2.2896 5.44954C2.08107 5.23003 2.08107 4.87523 2.2896 4.65572ZM5.33333 5.61404C5.33333 5.76 5.27467 5.90596 5.17867 6.01263C5.07733 6.11368 4.93867 6.17544 4.8 6.17544C4.65547 6.17544 4.52213 6.11368 4.42133 6.01263C4.3248 5.90596 4.26667 5.76 4.26667 5.61404C4.26667 5.46807 4.3248 5.32211 4.42133 5.21544C4.624 5.00772 4.976 5.00772 5.17867 5.21544C5.27467 5.32211 5.33333 5.46807 5.33333 5.61404ZM2.2896 7.46274L3.35627 6.33993C3.5648 6.12042 3.90187 6.12042 4.1104 6.33993C4.31893 6.55944 4.31893 6.91425 4.1104 7.13375L3.04373 8.25656C2.93973 8.36604 2.8032 8.42105 2.66667 8.42105C2.53013 8.42105 2.3936 8.36604 2.2896 8.25656C2.08107 8.03705 2.08107 7.68225 2.2896 7.46274ZM2.2896 10.2698L7.0896 5.21712C7.29813 4.99761 7.6352 4.99761 7.84373 5.21712C8.05227 5.43663 8.05227 5.79144 7.84373 6.01095L3.04373 11.0636C2.93973 11.1731 2.8032 11.2281 2.66667 11.2281C2.53013 11.2281 2.3936 11.1731 2.2896 11.0636C2.08107 10.8441 2.08107 10.4893 2.2896 10.2698ZM30.9333 23.2988C30.9333 24.0724 30.3355 24.7018 29.6011 24.7018H2.39893C1.66453 24.7018 1.06667 24.0724 1.06667 23.2988V20.7719H30.9333V23.2988Z" fill="white"/>
</svg>

<svg width="32" height="32" fill="none" xmlns="http://www.w3.org/2000/svg"><path d="M29.601 0H2.4C1.076 0 0 1.133 0 2.526v20.773c0 1.392 1.076 2.526 2.399 2.526h9.523c.076.983-.33 1.954-1.079 2.51l-.96.713a.674.674 0 00-.155.16c-.67.074-1.195.665-1.195 1.389 0 .773.598 1.403 1.334 1.403h12.266c.736 0 1.334-.63 1.334-1.404 0-.723-.525-1.314-1.194-1.388a.683.683 0 00-.152-.158l-.963-.714c-.75-.556-1.155-1.527-1.08-2.511h9.523c1.323 0 2.399-1.133 2.399-2.526V2.526C32 1.133 30.924 0 29.601 0zM9.223 2.972l.533-.562a.514.514 0 01.754 0 .582.582 0 010 .794l-.533.561a.519.519 0 01-.377.165.519.519 0 01-.377-.165.582.582 0 010-.793zm-.311 1.12a.596.596 0 01.155.4.596.596 0 01-.155.398.537.537 0 01-.379.163.535.535 0 01-.378-.163.593.593 0 010-.797.538.538 0 01.757 0zM7.09 2.41a.514.514 0 01.754 0 .582.582 0 010 .794l-1.6 1.684a.519.519 0 01-.377.165.519.519 0 01-.377-.165.582.582 0 010-.794l1.6-1.684zm-4.8 2.246L4.423 2.41a.514.514 0 01.754 0 .582.582 0 010 .794L3.044 5.45a.519.519 0 01-.377.164.519.519 0 01-.377-.164.582.582 0 010-.794zm3.043.958a.607.607 0 01-.154.399.547.547 0 01-.379.162.535.535 0 01-.379-.162.604.604 0 01-.154-.399c0-.146.058-.292.154-.399a.538.538 0 01.758 0 .607.607 0 01.154.399zM2.29 7.463L3.356 6.34a.514.514 0 01.754 0 .582.582 0 010 .794L3.044 8.257a.519.519 0 01-.377.164.519.519 0 01-.377-.164.582.582 0 010-.794zm0 2.807l4.8-5.053a.514.514 0 01.754 0 .582.582 0 010 .794l-4.8 5.053a.519.519 0 01-.377.164.519.519 0 01-.377-.164.582.582 0 010-.794zm28.643 13.029c0 .773-.598 1.403-1.332 1.403H2.4c-.734 0-1.332-.63-1.332-1.403v-2.527h29.866v2.527z" fill="#fff"/></svg>
